X:171
T: GLOCKE DU KLINGST FROEHLICH
N: B0660
O: Europa, Mitteleuropa, Deutschland
R: Moral - Lied
M: 2/4
L: 1/16
K: E
 | E2E2F2F2 | G3AB4 |
c2B2A2G2 | F4G4 |
A2G2A2B2 | G4z4 |
G2G2A2A2 | B3ee4 |
f2e2d2c2 | B4A4 |
G2B2A2F2 | E4z4

@@@ Tune index: 2389
